src/topics/icons/kissmetrics-monochromatic.svg

<svg height="256" preserveAspectRatio="xMidYMid" viewBox="0 0 256 256" width="256" xmlns="http://www.w3.org/2000/svg"><path d="m168.870175 0c-46.259649 0-84.4350873 36.3789474-86.6807013 82.1894737-45.8105263 2.245614-82.1894737 39.9719303-82.1894737 86.2315793 0 47.607017 39.0736842 86.680701 86.6807018 86.680701h133.8385962.449123c19.312281 0 35.031579-15.719298 35.031579-34.582456v-5.389473-128.4491232c0-48.0561404-39.073684-86.6807018-87.129825-86.6807018zm-92.9684206 216.926316c-17.9649123-4.491228-32.3368421-18.863158-36.8280702-36.378948-.4491228-2.245614-.4491228-3.143859-.8982456-5.389473h.8982456 36.8280702zm45.8105266 1.347368h-33.235088-2.2456141v-81.740351h35.4807021zm48.05614 0h-35.480702v-149.1087717h35.480702zm48.05614-7.185965c0 4.042106-3.143859 7.635088-7.185965 7.635088h-28.743859v-120.8140351h35.929824z" fill="#303030"/></svg>

<?xml version="1.0" encoding="UTF-8" standalone="no"?>
<svg width="256px" height="256px" viewBox="0 0 256 256" version="1.1" xmlns="http://www.w3.org/2000/svg" xmlns:xlink="http://www.w3.org/1999/xlink" preserveAspectRatio="xMidYMid">
    <g>
        <path d="M168.870175,0 C122.610526,0 84.4350877,36.3789474 82.1894737,82.1894737 C36.3789474,84.4350877 0,122.161404 0,168.421053 C0,216.02807 39.0736842,255.101754 86.6807018,255.101754 L220.519298,255.101754 L220.968421,255.101754 C240.280702,255.101754 256,239.382456 256,220.519298 L256,215.129825 L256,86.6807018 C256,38.6245614 216.926316,0 168.870175,0 L168.870175,0 Z M75.9017544,216.926316 C57.9368421,212.435088 43.5649123,198.063158 39.0736842,180.547368 L39.0736842,180.547368 C38.6245614,178.301754 38.6245614,177.403509 38.1754386,175.157895 L39.0736842,175.157895 L75.9017544,175.157895 L75.9017544,216.926316 L75.9017544,216.926316 Z M121.712281,218.273684 L88.477193,218.273684 L86.2315789,218.273684 L86.2315789,136.533333 L121.712281,136.533333 L121.712281,218.273684 L121.712281,218.273684 Z M169.768421,218.273684 L134.287719,218.273684 L134.287719,69.1649123 L169.768421,69.1649123 L169.768421,218.273684 L169.768421,218.273684 Z M217.824561,211.087719 C217.824561,215.129825 214.680702,218.722807 210.638596,218.722807 L181.894737,218.722807 L181.894737,97.9087719 L217.824561,97.9087719 L217.824561,211.087719 L217.824561,211.087719 Z" fill="#303030"></path>
    </g>
</svg>
